X:24
T:The Maid's Request
R:slip jig
D:Snug in the Blanket,P.O'Brien,J.Gans,D.Sproule
B:Ryan's Mammoth (key F- The Maid's Complaint)
S:Leo Brown,fiddle 
Z:Paul Stewart Cranford (P.S.C.), <http://www.cranfordpub.com>
L:1/8
Q:333
M:9/8
K:D
B|A2 F F2 d dBA|B2 c d2 e fdB|A2 F F2 d dBA|Bcd edc d2:|
|:e|f2 d d2 e fed|e2 c c2 d edc|d2 B B2 c dBA|[1Bcd edc d2:|[2Bcd AFE D2:|
